X:5042
T:Sid Blaney's
R:Hornpipe
C:Aidan Crossey
M:4/4
L:1/8
K:D
|:fg|(3aaa ab agfe|defd (3BBB dB|ABAc dcde|fagf (3eee fg|
(3aaa ab agfe|defd (3BBB dB|AFDF BGEG|(3ABA Bc d2:||
|:FG|AFDF BGEG|AFDF (3EEE FG|AFDF BGEG|(3ABA Bc d2de|
fdBd ecAG|(3FGF (3ABc d2cd|(3efe ag (3fgf ed|(3efe dc d2:||
